build/img/contacts/wa.svg

<svg width="21" height="21" viewBox="0 0 21 21" fill="none" xmlns="http://www.w3.org/2000/svg">
<path d="M10.5026 0H10.4974C4.70794 0 0 4.70925 0 10.5C0 12.7969 0.74025 14.9257 1.99894 16.6543L0.690375 20.5551L4.72631 19.2649C6.38663 20.3647 8.36719 21 10.5026 21C16.2921 21 21 16.2894 21 10.5C21 4.71056 16.2921 0 10.5026 0ZM16.6123 14.8273C16.359 15.5426 15.3536 16.1359 14.5517 16.3091C14.0031 16.4259 13.2864 16.5191 10.8741 15.519C7.78837 14.2406 5.80125 11.1051 5.64638 10.9016C5.49806 10.6982 4.3995 9.24131 4.3995 7.73456C4.3995 6.22781 5.16469 5.49412 5.47312 5.17913C5.72644 4.92056 6.14512 4.80244 6.54675 4.80244C6.67669 4.80244 6.7935 4.809 6.8985 4.81425C7.20694 4.82737 7.36181 4.84575 7.56525 5.33269C7.81856 5.943 8.43544 7.44975 8.50894 7.60463C8.58375 7.7595 8.65856 7.9695 8.55356 8.17294C8.45512 8.38294 8.3685 8.47612 8.21362 8.65462C8.05875 8.83313 7.91175 8.96963 7.75688 9.16125C7.61512 9.32794 7.455 9.50644 7.6335 9.81488C7.812 10.1167 8.42887 11.1234 9.33712 11.9319C10.5092 12.9754 11.4594 13.3088 11.7994 13.4505C12.0527 13.5555 12.3546 13.5306 12.5396 13.3337C12.7746 13.0804 13.0646 12.6604 13.3599 12.2469C13.5699 11.9503 13.8351 11.9136 14.1133 12.0186C14.3968 12.117 15.897 12.8586 16.2054 13.0121C16.5139 13.167 16.7173 13.2405 16.7921 13.3704C16.8656 13.5004 16.8656 14.1107 16.6123 14.8273Z" fill="#555665"/>
</svg>

<svg width="21" height="21" fill="none" xmlns="http://www.w3.org/2000/svg"><path d="M10.503 0h-.006C4.707 0 0 4.71 0 10.5c0 2.297.74 4.426 1.999 6.154L.69 20.555l4.036-1.29A10.41 10.41 0 0 0 10.503 21C16.293 21 21 16.29 21 10.5S16.292 0 10.503 0zm6.11 14.827c-.254.716-1.26 1.309-2.061 1.482-.549.117-1.266.21-3.678-.79-3.086-1.278-5.073-4.414-5.228-4.617-.148-.204-1.247-1.66-1.247-3.167s.766-2.24 1.074-2.556c.253-.258.672-.377 1.074-.377.13 0 .247.007.352.012.308.013.463.032.666.519.254.61.87 2.117.944 2.272.075.154.15.364.045.568-.099.21-.186.303-.34.482-.155.178-.302.315-.457.506-.142.167-.302.345-.123.654.178.302.795 1.308 1.703 2.117 1.172 1.043 2.122 1.377 2.462 1.518.254.106.556.08.74-.116.236-.254.526-.674.82-1.087.21-.297.476-.333.754-.228.284.098 1.784.84 2.092.993.309.155.512.229.587.358.074.13.074.74-.18 1.457z" fill="#555665"/></svg>
